X:1
T:Murthly Castle
T:Murthly Castle
T:Alexander Walker
C:Alexander Walker
L:1/8
M:2/2
K:D
V:1 treble 
V:1
 A | F>D D/D/D FDFA | EFGA BABd | F>D D/D/D FDFA | GFED CEE :| g | f>d d/d/d AdFd | GeFd eEEg | %8
 f>d d/d/d AdFd | ABde fddg | f>d d/d/d AdFd | GeFd eEEg | fdcd BcAB | FAEG FDD || %14

